bucket-outline.svg

<svg fill="currentColor" viewBox="0 0 24 24"><path d="M3 4h18v3h-1l-2.5 14h-11L4 7H3zm14.97 3H6.03l2.12 12h7.7z"/></svg>

<svg  viewBox="0 0 24 24" fill="currentColor"><path  d="M3 4H21V7H20L17.5 21H6.5L4 7H3V4M17.97 7H6.03L8.15 19H15.85L17.97 7Z"/></svg>
